icons/evolvere-blue-folders-flat-vivid-dark-fallback/mimetypes/64/package-tar.tzo.svg

<?xml version="1.0" encoding="UTF-8" standalone="no"?>
<!-- Created with Inkscape (http://www.inkscape.org/) -->

<svg
   xmlns:dc="http://purl.org/dc/elements/1.1/"
   xmlns:cc="http://creativecommons.org/ns#"
   xmlns:rdf="http://www.w3.org/1999/02/22-rdf-syntax-ns#"
   xmlns:svg="http://www.w3.org/2000/svg"
   xmlns="http://www.w3.org/2000/svg"
   xmlns:xlink="http://www.w3.org/1999/xlink"
   xmlns:sodipodi="http://sodipodi.sourceforge.net/DTD/sodipodi-0.dtd"
   xmlns:inkscape="http://www.inkscape.org/namespaces/inkscape"
   version="1.1"
   width="64"
   height="64"
   id="svg13094"
   inkscape:version="0.91+devel r"
   sodipodi:docname="package-tar.tzo.svg">
  <sodipodi:namedview
     pagecolor="#ffffff"
     bordercolor="#666666"
     borderopacity="1"
     objecttolerance="10"
     gridtolerance="10"
     guidetolerance="10"
     inkscape:pageopacity="0"
     inkscape:pageshadow="2"
     inkscape:window-width="1920"
     inkscape:window-height="1023"
     id="namedview44"
     showgrid="false"
     inkscape:zoom="10.429825"
     inkscape:cx="2.3743051"
     inkscape:cy="34.133882"
     inkscape:window-x="-10"
     inkscape:window-y="35"
     inkscape:window-maximized="1"
     inkscape:current-layer="svg13094" />
  <defs
     id="defs11">
    <radialGradient
       cx="59.89941"
       cy="2.0516231"
       r="32"
       id="radialGradient3857-3"
       gradientUnits="userSpaceOnUse"
       gradientTransform="matrix(-2.298935e-8,1.2105557,-1.4259153,-2.7079188e-8,49.162732,-22.737782)">
      <stop
         id="stop3853-0"
         style="stop-color:#ffe78d;stop-opacity:0.28918746;"
         offset="0" />
      <stop
         id="stop3855-4"
         style="stop-color:#ffea90;stop-opacity:0;"
         offset="1" />
    </radialGradient>
    <radialGradient
       cx="21.792179"
       cy="49.22028"
       r="16"
       id="radialGradient3849-2"
       xlink:href="#linearGradient3817-8"
       gradientUnits="userSpaceOnUse"
       gradientTransform="matrix(-1.9776652e-8,-1.4375,-1.4375,-1.329812e-5,94.8125,87.43807)" />
    <linearGradient
       id="linearGradient3817-8">
      <stop
         id="stop3819-6"
         style="stop-color:#000000;stop-opacity:0.1222009;"
         offset="0" />
      <stop
         id="stop3821-9"
         style="stop-color:#000000;stop-opacity:0;"
         offset="1" />
    </linearGradient>
    <radialGradient
       cx="23.236361"
       cy="39.32011"
       r="16"
       id="radialGradient3837-7-2"
       xlink:href="#linearGradient3817-8"
       gradientUnits="userSpaceOnUse"
       gradientTransform="matrix(-1.3019008e-5,-1.4052387,-1.4052387,0,93.472788,86.44508)" />
    <radialGradient
       cx="34.96587"
       cy="40.56699"
       r="16"
       id="radialGradient3841-0"
       xlink:href="#linearGradient3817-8"
       gradientUnits="userSpaceOnUse"
       gradientTransform="matrix(-2.096279e-8,-1.0659693,-2.725932,-3.7493971e-5,131.57524,70.22225)" />
    <radialGradient
       cx="43.7145"
       cy="28.35227"
       r="16"
       id="radialGradient3845-6"
       xlink:href="#linearGradient3817-8"
       gradientUnits="userSpaceOnUse"
       gradientTransform="matrix(-2.1712014e-5,-2.2165482,-2.2165484,0,97.970716,124.16221)" />
    <radialGradient
       cx="29.99848"
       cy="52.804661"
       r="16"
       id="radialGradient3823-6"
       xlink:href="#linearGradient3817-8"
       gradientUnits="userSpaceOnUse"
       gradientTransform="matrix(1.9776652e-8,-0.44005103,1.4375,-4.0708531e-6,-30.8125,22.174921)" />
    <radialGradient
       cx="29.0648"
       cy="42.199619"
       r="16"
       id="radialGradient3829-2"
       xlink:href="#linearGradient3817-8"
       gradientUnits="userSpaceOnUse"
       gradientTransform="matrix(1.9776659e-8,-0.44005103,1.4375,-4.0708531e-6,-30.8125,22.174921)" />
    <radialGradient
       cx="46.159752"
       cy="36.935829"
       r="16"
       id="radialGradient3825-8"
       xlink:href="#linearGradient3817-8"
       gradientUnits="userSpaceOnUse"
       gradientTransform="matrix(2.096279e-8,-0.32631713,2.725932,-1.1477746e-5,-67.57524,16.90477)" />
    <radialGradient
       cx="47.140202"
       cy="17.89163"
       r="16"
       id="radialGradient3827-6"
       xlink:href="#linearGradient3817-8"
       gradientUnits="userSpaceOnUse"
       gradientTransform="matrix(2.1712014e-5,-0.67853516,2.2165484,0,-33.970716,33.417004)" />
  </defs>
  <metadata
     id="metadata13099">
    <rdf:RDF>
      <cc:Work
         rdf:about="">
        <dc:format>image/svg+xml</dc:format>
        <dc:type
           rdf:resource="http://purl.org/dc/dcmitype/StillImage" />
        <dc:title></dc:title>
      </cc:Work>
    </rdf:RDF>
  </metadata>
  <path
     d="M 0,1 2,0 62,0 64,1 64,17 0,17 Z"
     id="path3029"
     style="fill:#d8bd6f;fill-opacity:1;fill-rule:nonzero"
     inkscape:connector-curvature="0"
     sodipodi:nodetypes="ccccccc" />
  <path
     d="m 0,16 64,0 0,46 -2,2 -60,0 -2,-2 z"
     id="path3809"
     style="color:#000000;display:inline;overflow:visible;visibility:visible;fill:#a07c46;fill-opacity:1;fill-rule:nonzero;stroke-width:1;stroke-linecap:butt;stroke-linejoin:miter;stroke-miterlimit:4;stroke-dasharray:none;stroke-dashoffset:0;stroke-opacity:1;marker:none;enable-background:accumulate"
     inkscape:connector-curvature="0"
     sodipodi:nodetypes="ccccccc" />
  <path
     d="m 0,16 64,0 0,46 -2,2 -60,0 -2,-2 z"
     id="path3831"
     style="fill:#a6854c;fill-opacity:1;fill-rule:nonzero"
     inkscape:connector-curvature="0"
     sodipodi:nodetypes="ccccccc" />
  <path
     d="m 0,62 2,2 30,0 0,-24 -32,0 z"
     id="path3847"
     style="fill:#9c7a44;fill-opacity:1;fill-rule:nonzero;opacity:1;stroke-width:1;stroke-linecap:butt;stroke-linejoin:miter;stroke-miterlimit:4;stroke-dasharray:none;stroke-dashoffset:0;stroke-opacity:1"
     inkscape:connector-curvature="0"
     sodipodi:nodetypes="cccccc" />
  <path
     d="m 64,62 -2,2 -30,0 0,-24 32,0 z"
     id="path3835"
     style="fill:#9c7a44;fill-opacity:1;fill-rule:nonzero;opacity:1;stroke-width:1;stroke-linecap:butt;stroke-linejoin:miter;stroke-miterlimit:4;stroke-dasharray:none;stroke-dashoffset:0;stroke-opacity:1"
     inkscape:connector-curvature="0"
     sodipodi:nodetypes="cccccc" />
  <path
     d="m 0,16 32,0 0,24 -32,0 z"
     id="path3839"
     style="fill:#9c7a44;fill-opacity:1;fill-rule:nonzero;opacity:1;stroke-width:1;stroke-linecap:butt;stroke-linejoin:miter;stroke-miterlimit:4;stroke-dasharray:none;stroke-dashoffset:0;stroke-opacity:1"
     inkscape:connector-curvature="0"
     sodipodi:nodetypes="ccccc" />
  <path
     d="m 64,16 -32,0 0,24 32,0 z"
     id="path3843"
     style="fill:#9c7a44;fill-opacity:1;fill-rule:nonzero;opacity:1;stroke-width:1;stroke-linecap:butt;stroke-linejoin:miter;stroke-miterlimit:4;stroke-dasharray:none;stroke-dashoffset:0;stroke-opacity:1"
     inkscape:connector-curvature="0"
     sodipodi:nodetypes="ccccc" />
  <path
     d="m 64,16 -32,0 0,-7.846939 32,0 z"
     id="path3813"
     style="fill:#d7b871;fill-opacity:1;fill-rule:nonzero"
     inkscape:connector-curvature="0"
     sodipodi:nodetypes="ccccc" />
  <path
     d="m 0,16 32,0 0,-7.846939 -32,0 z"
     id="path3811"
     style="fill:#d2b164;fill-opacity:1;fill-rule:nonzero"
     inkscape:connector-curvature="0"
     sodipodi:nodetypes="ccccc" />
  <path
     d="m 64,1 -2,-1 -30,0 0,8.153061 32,0 z"
     id="path3815"
     style="fill:#d2b164;fill-opacity:1;fill-rule:nonzero"
     inkscape:connector-curvature="0"
     sodipodi:nodetypes="cccccc" />
  <path
     d="m 0,1 2,-1 30,0 0,8.153061 -32,0 z"
     id="path3960"
     style="fill:#d7b871;fill-opacity:1;fill-rule:nonzero"
     inkscape:connector-curvature="0"
     sodipodi:nodetypes="cccccc" />
  <path
     d="m 64,18 -2,-2 2,-1 z"
     id="path3028"
     style="fill:#ba9c59;fill-opacity:1"
     inkscape:connector-curvature="0"
     sodipodi:nodetypes="cccc" />
  <path
     d="M 0,18 2,16 0,15 Z"
     id="path3028-3"
     style="fill:#dbc071;fill-opacity:1"
     inkscape:connector-curvature="0"
     sodipodi:nodetypes="cccc" />
  <path
     sodipodi:nodetypes="csscsscccccccscccccccccccccccccccccccccccccccccccccccccccccccccccccccsssccccccccccccccc"
     inkscape:connector-curvature="0"
     id="path3183"
     d="m 55.8125,19.90625 c -1.040645,7e-6 -1.865116,0.311862 -2.46875,0.9375 -0.603636,0.625649 -0.875,1.477657 -0.875,2.59375 0,1.109813 0.274508,1.99307 0.875,2.625 0.603634,0.628788 1.428105,0.968749 2.46875,0.96875 1.037495,-1e-6 1.865107,-0.336818 2.46875,-0.96875 0.603628,-0.631929 0.906243,-1.490227 0.90625,-2.59375 -7e-6,-1.116094 -0.305766,-1.999351 -0.90625,-2.625 -0.600498,-0.628781 -1.428111,-0.937493 -2.46875,-0.9375 z M 28.28125,20 l 0,14.09375 2.5625,0 0,-6.03125 2.1875,0 c 0.61439,0 0.98494,-0.0064 1.09375,0 0.14719,0.2432 0.53545,1.02537 1.15625,2.34375 l 1.625,3.6875 2.84375,0 L 37.65625,29.75 c -0.51201,-1.05598 -0.93566,-1.76585 -1.28125,-2.15625 1.69597,-0.58879 2.53124,-1.81871 2.53125,-3.6875 -1e-5,-0.63358 -0.07721,-1.19544 -0.25,-1.65625 -0.16641,-0.46718 -0.39311,-0.83699 -0.6875,-1.125 C 37.68074,20.83702 37.28608,20.60391 36.8125,20.4375 36.3453,20.26472 35.86854,20.15776 35.34375,20.09375 34.82535,20.02976 34.21039,20.00001 33.5,20 z M 41,20 l 0,1.03125 2.03125,0 0,5.875 1.25,0 0,-5.875 2,0 0,-1.03125 z m 6,0 0,1.03125 3.53125,0 -3.65625,5.03125 0,0.84375 5.1875,0 0,-1.03125 -3.625,0 3.59375,-4.9375 0,-0.9375 z m -41.75,0.03125 0,2.09375 4.09375,0 0,11.96875 2.625,0 0,-11.96875 4.0625,0 0,-2.09375 z m 14.34375,0 -5.1875,14.0625 2.71875,0 1.40625,-3.96875 4.9375,0 1.375,3.96875 2.6875,0 -5.09375,-14.0625 z M 55.8125,20.9375 c 0.666511,6e-6 1.160449,0.212961 1.5,0.65625 0.342683,0.443301 0.562494,1.070156 0.5625,1.875 -6e-6,0.795418 -0.219817,1.406744 -0.5625,1.84375 -0.339551,0.433863 -0.830345,0.656251 -1.5,0.65625 -0.669661,1e-6 -1.157314,-0.250491 -1.5,-0.6875 -0.342691,-0.437005 -0.500002,-1.020226 -0.5,-1.8125 -2e-6,-0.801701 0.157309,-1.431699 0.5,-1.875 0.345831,-0.446432 0.830339,-0.656244 1.5,-0.65625 z m -24.96875,1 3,0 c 0.90878,10e-6 1.58965,0.14236 2.03125,0.46875 0.44159,0.32641 0.65624,0.84007 0.65625,1.53125 -1e-5,0.7872 -0.22106,1.36036 -0.65625,1.71875 -0.4352,0.35201 -1.15787,0.53126 -2.15625,0.53125 l -1.4375,0 c -0.8576,-0.0064 -1.34151,10e-6 -1.4375,0 z m -9.8125,0.53125 c 0.03199,0.12161 0.62925,2.02599 1.78125,5.71875 l -3.625,0 z"
     style="color:#000000;fill:#efe3b6;fill-opacity:1;fill-rule:nonzero;stroke-width:1;stroke-linecap:butt;stroke-linejoin:miter;stroke-miterlimit:4;stroke-opacity:1;stroke-dasharray:none;stroke-dashoffset:0;marker:none;visibility:visible;display:inline;overflow:visible;enable-background:accumulate;opacity:1" />
  <path
     style="color:#000000;fill:#642400;fill-opacity:0.14042933;fill-rule:nonzero;stroke-width:1;stroke-linecap:butt;stroke-linejoin:miter;stroke-miterlimit:4;stroke-opacity:1;stroke-dasharray:none;stroke-dashoffset:0;marker:none;visibility:visible;display:inline;overflow:visible;enable-background:accumulate;opacity:1"
     d="M 56.0625 20.96875 C 55.3633 21.085789 54.796475 21.374522 54.34375 21.84375 C 54.20882 21.983601 54.071156 22.118357 53.96875 22.28125 C 53.861715 22.623476 53.812499 23.012579 53.8125 23.46875 C 53.812498 24.261024 53.969809 24.844245 54.3125 25.28125 C 54.509015 25.531854 54.763656 25.696632 55.0625 25.8125 C 54.907728 25.447019 54.812499 25.008285 54.8125 24.46875 C 54.812498 23.667049 54.969809 23.037051 55.3125 22.59375 C 55.658331 22.147318 56.142839 21.937506 56.8125 21.9375 C 57.095317 21.937503 57.340438 21.984486 57.5625 22.0625 C 57.484139 21.895478 57.415896 21.727505 57.3125 21.59375 C 57.0353 21.231861 56.649131 21.033079 56.15625 20.96875 C 56.126196 20.964827 56.093395 20.971604 56.0625 20.96875 z M 46.28125 21 L 46.28125 21.03125 L 44.28125 21.03125 L 44.28125 26.90625 L 44.03125 26.90625 L 44.03125 27.90625 L 45.28125 27.90625 L 45.28125 22.03125 L 47.28125 22.03125 L 47.28125 21.03125 L 47 21.03125 L 47 21 L 46.28125 21 z M 52 21 L 51.25 22.03125 L 51.53125 22.03125 L 48.75 25.875 L 50.15625 25.875 L 52.53125 22.65625 C 52.532757 22.645591 52.529676 22.635599 52.53125 22.625 C 52.611348 22.085713 52.767382 21.610609 53.03125 21.21875 L 53.03125 21 L 52 21 z M 16.03125 21.03125 L 16.03125 22.125 L 11.96875 22.125 L 11.96875 34.09375 L 10.34375 34.09375 L 10.34375 35.09375 L 12.96875 35.09375 L 12.96875 23.125 L 17.03125 23.125 L 17.03125 21.03125 L 16.03125 21.03125 z M 22.8125 21.03125 L 27.53125 34.09375 L 25.5 34.09375 L 25.84375 35.09375 L 28.53125 35.09375 L 23.4375 21.03125 L 22.8125 21.03125 z M 42 21.03125 L 42 22.03125 L 43.03125 22.03125 L 43.03125 21.03125 L 42 21.03125 z M 48 21.03125 L 48 22.03125 L 49.8125 22.03125 L 50.53125 21.03125 L 48 21.03125 z M 58.6875 21.375 C 59.026824 21.939679 59.187495 22.63168 59.1875 23.46875 C 59.187495 24.237721 59.043343 24.86905 58.75 25.40625 C 58.652248 25.764117 58.505259 26.066684 58.3125 26.3125 C 57.972949 26.746363 57.482155 26.968751 56.8125 26.96875 C 56.74583 26.96875 56.688098 26.973652 56.625 26.96875 C 56.603967 26.967116 56.583141 26.970919 56.5625 26.96875 C 56.329582 27.010201 56.071874 27.03125 55.8125 27.03125 C 55.088466 27.031249 54.481924 26.843161 53.96875 26.53125 C 54.078929 26.720261 54.193627 26.904517 54.34375 27.0625 C 54.947384 27.691288 55.771855 28.031249 56.8125 28.03125 C 57.849995 28.031249 58.677607 27.694432 59.28125 27.0625 C 59.884878 26.430571 60.187493 25.572273 60.1875 24.46875 C 60.187493 23.352656 59.881734 22.469399 59.28125 21.84375 C 59.104925 21.65912 58.902632 21.504725 58.6875 21.375 z M 38.40625 21.71875 C 38.500217 21.884335 38.584981 22.049919 38.65625 22.25 C 38.82904 22.71081 38.90624 23.27267 38.90625 23.90625 C 38.90624 25.77504 38.07097 27.00496 36.375 27.59375 C 36.72059 27.98415 37.14424 28.69402 37.65625 29.75 L 39.75 34.09375 L 37.46875 34.09375 L 37.90625 35.09375 L 40.75 35.09375 L 38.65625 30.75 C 38.14424 29.69402 37.72059 28.98415 37.375 28.59375 C 39.07097 28.00496 39.90624 26.77504 39.90625 24.90625 C 39.90624 24.27267 39.82904 23.71081 39.65625 23.25 C 39.48984 22.78282 39.26314 22.41301 38.96875 22.125 C 38.810903 21.96717 38.6236 21.84167 38.40625 21.71875 z M 30.84375 21.9375 L 30.84375 26.1875 C 30.910526 26.187507 31.406311 26.187233 31.84375 26.1875 L 31.84375 22.9375 L 34.84375 22.9375 C 35.479142 22.937507 35.997563 23.002828 36.40625 23.15625 C 36.300108 22.84609 36.129213 22.594156 35.875 22.40625 C 35.4334 22.07986 34.75253 21.93751 33.84375 21.9375 L 30.84375 21.9375 z M 6.25 22.125 L 6.25 23.125 L 9.34375 23.125 L 9.34375 22.125 L 6.25 22.125 z M 21.03125 22.46875 L 19.1875 28.1875 L 20.5 28.1875 L 21.6875 24.5625 C 21.524588 24.039205 21.042969 22.513299 21.03125 22.46875 z M 52.0625 26.875 L 52.0625 26.90625 L 48 26.90625 L 47.875 27.0625 L 47.875 27.90625 L 53.0625 27.90625 L 53.0625 26.875 L 52.0625 26.875 z M 30.84375 28.0625 L 30.84375 34.09375 L 29.28125 34.09375 L 29.28125 35.09375 L 31.84375 35.09375 L 31.84375 29.0625 L 34.03125 29.0625 C 34.364776 29.0625 34.438054 29.063201 34.625 29.0625 C 34.474465 28.761404 34.187967 28.16654 34.125 28.0625 C 34.01619 28.0561 33.64564 28.0625 33.03125 28.0625 L 30.84375 28.0625 z M 18.53125 30.125 L 17.125 34.09375 L 15.78125 34.09375 L 15.40625 35.09375 L 18.125 35.09375 L 19.53125 31.125 L 23.8125 31.125 L 23.46875 30.125 L 18.53125 30.125 z "
     id="path3816" />
</svg>

<svg xmlns="http://www.w3.org/2000/svg" viewBox="0 0 64 64"><path d="m0 1l2-1h60l2 1v16h-64" fill="#d8bd6f"/><path d="m0 16h64v46l-2 2h-60l-2-2z" fill="#a07c46" color="#000"/><path d="m0 16h64v46l-2 2h-60l-2-2z" fill="#a6854c"/><g fill="#9c7a44"><path d="m0 62l2 2h30v-24h-32z"/><path d="m64 62l-2 2h-30v-24h32z"/><path d="m0 16h32v24h-32z"/><path d="m64 16h-32v24h32z"/></g><path d="m64 16h-32v-7.847h32z" fill="#d7b871"/><g fill="#d2b164"><path d="m0 16h32v-7.847h-32z"/><path d="m64 1l-2-1h-30v8.153h32z"/></g><path d="m0 1l2-1h30v8.153h-32z" fill="#d7b871"/><path d="m64 18l-2-2 2-1z" fill="#ba9c59"/><path d="m0 18l2-2-2-1" fill="#dbc071"/><g color="#000"><path d="m55.813 19.906c-1.041 0-1.865.312-2.469.938-.604.626-.875 1.478-.875 2.594 0 1.11.275 1.993.875 2.625.604.629 1.428.969 2.469.969 1.037 0 1.865-.337 2.469-.969.604-.632.906-1.49.906-2.594 0-1.116-.306-1.999-.906-2.625-.6-.629-1.428-.937-2.469-.938m-27.531.094v14.09h2.563v-6.03h2.188c.614 0 .985-.006 1.094 0 .147.243.535 1.025 1.156 2.344l1.625 3.688h2.844l-2.094-4.344c-.512-1.056-.936-1.766-1.281-2.156 1.696-.589 2.531-1.819 2.531-3.688 0-.634-.077-1.195-.25-1.656-.166-.467-.393-.837-.688-1.125-.288-.288-.683-.521-1.156-.688-.467-.173-.944-.28-1.469-.344-.518-.064-1.133-.094-1.844-.094zm12.719 0v1.031h2.031v5.875h1.25v-5.875h2v-1.031zm6 0v1.031h3.531l-3.656 5.03v.844h5.188v-1.031h-3.625l3.594-4.938v-.938zm-41.75.031v2.094h4.094v11.969h2.625v-11.969h4.063v-2.094zm14.344 0l-5.188 14.06h2.719l1.406-3.969h4.938l1.375 3.969h2.688l-5.094-14.06zm36.22.906c.667 0 1.16.213 1.5.656.343.443.562 1.07.563 1.875 0 .795-.22 1.407-.563 1.844-.34.434-.83.656-1.5.656-.67 0-1.157-.25-1.5-.688-.343-.437-.5-1.02-.5-1.813 0-.802.157-1.432.5-1.875.346-.446.83-.656 1.5-.656m-24.969 1h3c.909 0 1.59.142 2.031.469.442.326.656.84.656 1.531 0 .787-.221 1.36-.656 1.719-.435.352-1.158.531-2.156.531h-1.438c-.858-.006-1.342 0-1.438 0zm-9.813.531c.032.122.629 2.026 1.781 5.719h-3.625z" fill="#efe3b6"/><path d="m56.06 20.969c-.699.117-1.266.406-1.719.875-.135.14-.273.275-.375.438-.107.342-.156.731-.156 1.188 0 .792.157 1.375.5 1.813.197.251.451.415.75.531-.155-.365-.25-.804-.25-1.344 0-.802.157-1.432.5-1.875.346-.446.83-.656 1.5-.656.283 0 .528.047.75.125-.078-.167-.147-.335-.25-.469-.277-.362-.663-.561-1.156-.625-.03-.004-.063.003-.094 0m-9.781.031v.031h-2v5.875h-.25v1h1.25v-5.875h2v-1h-.281v-.031h-.719m5.719 0l-.75 1.031h.281l-2.781 3.844h1.406l2.375-3.219c.002-.011-.002-.021 0-.031.08-.539.236-1.014.5-1.406v-.219h-1.031m-35.969.031v1.094h-4.063v11.969h-1.625v1h2.625v-11.969h4.063v-2.094h-1m6.781 0l4.719 13.06h-2.031l.344 1h2.688l-5.094-14.06h-.625m19.19 0v1h1.031v-1h-1.031m6 0v1h1.813l.719-1h-2.531m10.688.344c.339.565.5 1.257.5 2.094 0 .769-.144 1.4-.438 1.938-.098.358-.245.66-.438.906-.34.434-.83.656-1.5.656-.067 0-.124.005-.188 0-.021-.002-.042.002-.063 0-.233.041-.491.063-.75.063-.724 0-1.331-.188-1.844-.5.11.189.225.373.375.531.604.629 1.428.969 2.469.969 1.037 0 1.865-.337 2.469-.969.604-.632.906-1.49.906-2.594 0-1.116-.306-1.999-.906-2.625-.176-.185-.379-.339-.594-.469m-20.281.344c.094.166.179.331.25.531.173.461.25 1.023.25 1.656 0 1.869-.835 3.099-2.531 3.688.346.39.769 1.1 1.281 2.156l2.094 4.344h-2.281l.438 1h2.844l-2.094-4.344c-.512-1.056-.936-1.766-1.281-2.156 1.696-.589 2.531-1.819 2.531-3.688 0-.634-.077-1.195-.25-1.656-.166-.467-.393-.837-.688-1.125-.158-.158-.345-.283-.563-.406m-7.563.219v4.25c.067 0 .563 0 1 0v-3.25h3c.635 0 1.154.065 1.563.219-.106-.31-.277-.562-.531-.75-.442-.326-1.122-.469-2.031-.469h-3m-24.594.188v1h3.094v-1h-3.094m14.781.344l-1.844 5.719h1.313l1.188-3.625c-.163-.523-.645-2.049-.656-2.094m31.03 4.406v.031h-4.063l-.125.156v.844h5.188v-1.031h-1m-21.22 1.188v6.03h-1.563v1h2.563v-6.03h2.188c.334 0 .407.001.594 0-.151-.301-.437-.896-.5-1-.109-.006-.479 0-1.094 0h-2.188m-12.313 2.063l-1.406 3.969h-1.344l-.375 1h2.719l1.406-3.969h4.281l-.344-1h-4.938" fill="#642400" fill-opacity=".14"/></g></svg>
